assets/icon-copy.svg

<svg fill="none" height="40" viewBox="0 0 80 40" width="80" xmlns="http://www.w3.org/2000/svg"><g fill="#1b1d44"><path clip-rule="evenodd" d="m11 21.5h1.5v-10.5h10.5v-1.5h-10.5c-.825 0-1.5.675-1.5 1.5zm12.975-7.05 4.575 4.575c.3.3.45.675.45 1.05v8.925c0 .825-.675 1.5-1.5 1.5h-10.5c-.825 0-1.5-.675-1.5-1.5v-13.5c0-.825.675-1.5 1.5-1.5h6c.375 0 .75.15.975.45zm3.45 5.55-4.425-4.5v4.5zm-10.425-4.5v13.5h10.5v-7.5h-4.5c-.825 0-1.5-.675-1.5-1.5v-4.5z" fill-rule="evenodd"/><path d="m57.75 26-6.75-6.75 1.0605-1.0605 5.6895 5.6887 10.1895-10.1887 1.0605 1.0605z"/></g></svg>

<svg width="80" height="40" viewBox="0 0 80 40" fill="none" xmlns="http://www.w3.org/2000/svg">
<path fill-rule="evenodd" clip-rule="evenodd" d="M11 21.5H12.5V11H23V9.5H12.5C11.675 9.5 11 10.175 11 11V21.5ZM23.975 14.45L28.55 19.025C28.85 19.325 29 19.7 29 20.075V29C29 29.825 28.325 30.5 27.5 30.5H17C16.175 30.5 15.5 29.825 15.5 29V15.5C15.5 14.675 16.175 14 17 14H23C23.375 14 23.75 14.15 23.975 14.45ZM27.425 20L23 15.5V20H27.425ZM17 15.5V29H27.5V21.5H23C22.175 21.5 21.5 20.825 21.5 20V15.5H17Z" fill="#1B1D44"/>
<path d="M57.75 26L51 19.25L52.0605 18.1895L57.75 23.8782L67.9395 13.6895L69 14.75L57.75 26Z" fill="#1B1D44"/>
</svg>
